client/src/assets/images/header/menu.svg

<?xml version="1.0" encoding="UTF-8"?>
<svg width="24px" height="24px" viewBox="0 0 24 24" version="1.1" xmlns="http://www.w3.org/2000/svg" xmlns:xlink="http://www.w3.org/1999/xlink">
    <!-- Generator: Sketch 43.2 (39069) - http://www.bohemiancoding.com/sketch -->
    <title>menu</title>
    <desc>Created with Sketch.</desc>
    <defs></defs>
    <g id="Page-1" stroke="none" stroke-width="1" fill="none" fill-rule="evenodd">
        <g id="Artboard-4" transform="translate(-180.000000, -203.000000)" stroke="#333333">
            <g id="44" transform="translate(180.000000, 203.000000)">
                <path d="M3.5,7 C3.5,6.72319836 3.72175357,6.5 3.99339768,6.5 L20.0066023,6.5 C20.2799786,6.5 20.5,6.72089465 20.5,7 C20.5,7.27680164 20.2782464,7.5 20.0066023,7.5 L3.99339768,7.5 C3.72002141,7.5 3.5,7.27910535 3.5,7 Z M3.5,12 C3.5,11.7231984 3.72175357,11.5 3.99339768,11.5 L20.0066023,11.5 C20.2799786,11.5 20.5,11.7208946 20.5,12 C20.5,12.2768016 20.2782464,12.5 20.0066023,12.5 L3.99339768,12.5 C3.72002141,12.5 3.5,12.2791054 3.5,12 Z M3.5,17 C3.5,16.7231984 3.72175357,16.5 3.99339768,16.5 L20.0066023,16.5 C20.2799786,16.5 20.5,16.7208946 20.5,17 C20.5,17.2768016 20.2782464,17.5 20.0066023,17.5 L3.99339768,17.5 C3.72002141,17.5 3.5,17.2791054 3.5,17 Z" id="Combined-Shape"></path>
            </g>
        </g>
    </g>
</svg>

<svg xmlns="http://www.w3.org/2000/svg" viewBox="0 0 24 24">
  <defs/>
  <path fill="none" fill-rule="evenodd" stroke="#333" d="M3.5 7c0-.3.2-.5.5-.5h16c.3 0 .5.2.5.5s-.2.5-.5.5H4a.5.5 0 01-.5-.5zm0 5c0-.3.2-.5.5-.5h16c.3 0 .5.2.5.5s-.2.5-.5.5H4a.5.5 0 01-.5-.5zm0 5c0-.3.2-.5.5-.5h16c.3 0 .5.2.5.5s-.2.5-.5.5H4a.5.5 0 01-.5-.5z"/>
</svg>
